!!!COM: Mozart, Wolfgang Amadeus
!!!OTL: String Quartet No. 9 in A Major
!!!OMD: Molto allegro
!!!OMV: 1
!!!SCT1: K<sup>1</sup> 169
!!!SCA: Chronologisch-thematisches Verzeichnis sämtlicher Tonwerke Wolfgang Amade Mozarts (L. von Köchel; 1862, 2/1905, 3/1937, 1947)
!!!SCT2: K<sup>6</sup> 169
!!!YOR: Breitkopf & Härtel Edition
!!!ENC: Frances Bennion
!!!CDT: 1756/1/27/-1791/12/5/
!!!OCY: Österreich
!!!YEC: Copyright (c) 1994, 2000 Center for Computer Assisted Research in the Humanities
!!!YEM: Rights to all derivative editions reserved.
!!!YEM: Refer to licensing agreement for further details.
!!!YEN: United States of America
**kern	**kern	**kern	**kern
*k[f#c#g#]	*k[f#c#g#]	*k[f#c#g#]	*k[f#c#g#]
*A:	*A:	*A:	*A:
*clefC	*clefF	*clefG	*clefG
*M3/4	*M3/4	*M3/4	*M3/4
8A	8A	2cc#	2ee
8A	8A	.	.
8A	8A	.	.
8A	8A	.	.
8A	8A	4e	4cc#
8A	8A	.	.
=2	=2	=2	=2
8A	8A	4c#	4a
8A	8A	.	.
8A	8A	4.f#	4.aa
8A	8A	.	.
8A	8A	.	.
8A	8A	16e	16gg#
.	.	16d	16ff#
=3	=3	=3	=3
4A	4A	8c#	8ee
.	.	16B	16dd
.	.	16A	16cc#
8r	8r	4A	4cc#
8A	8cc#	.	.
8E	8a	4r	4r
8C#	8e	.	.
=4	=4	=4	=4
4AA	4c#	4e	16a
.	.	.	16b
.	.	.	16cc#
.	.	.	16dd
2r	2r	2r	16cc#
.	.	.	16dd
.	.	.	16ee
.	.	.	16ff#
.	.	.	16ee
.	.	.	16ff#
.	.	.	16gg#
.	.	.	16aa
=5	=5	=5	=5
8D	8A	16f#	8aa
.	.	16g#	.
8D	8A	16a	8b
.	.	16g#	.
8D	8A	16f#	[2b
.	.	16e	.
8D	8A	16d	.
.	.	16c#	.
8D	8F#	16d	.
.	.	16c#	.
8D	8F#	16B	.
.	.	16A	.
=6	=6	=6	=6
4E	4E	8G#	8b]
.	.	8G#	8b
2r	2r	8A	8cc#
.	.	8A	8cc#
.	.	8B	8dd
.	.	8B	8dd
=7	=7	=7	=7
8r	8r	4G#	4b#
8F#	8f#	.	.
8FF#	8F#	4A	4cc#
8F#	8a	.	.
8E	8g#	4r	4r
8D	8f#	.	.
=8	=8	=8	=8
4C#	4e	2.r	16a
.	.	.	16b
.	.	.	16cc#
.	.	.	16dd
2r	2r	.	16cc#
.	.	.	16dd
.	.	.	16ee
.	.	.	16ff#
.	.	.	16ee
.	.	.	16ff#
.	.	.	16gg#
.	.	.	16aa
=9	=9	=9	=9
8D	8A	16f#	8aa
.	.	16g#	.
8D	8A	16a	8b
.	.	16g#	.
8D	8A	16f#	[2b
.	.	16e	.
8D	8A	16d	.
.	.	16c#	.
8D	8F#	16d	.
.	.	16c#	.
8D	8F#	16B	.
.	.	16A	.
=10	=10	=10	=10
8E	8E	8G#	8b]
8E	8E	4b	4ddd
8E	8E	.	.
8E	8E	8g#	8bb
8E	8E	8e	8gg#
8E	8g#	8b	8dd
=11	=11	=11	=11
4A	4a	8a	8cc#
.	.	16g#	16b
.	.	16a	16a
4AA	4A	4e 4c#	4a
4r	4r	4r	4r
=12	=12	=12	=12
2.r	4E	4G#	2B
.	2r	2r	.
.	.	.	4e
=13	=13	=13	=13
2.r	4r	4r	8e
.	.	.	8d#
.	4F#	4A	[2d#
.	4F#	4A	.
=14	=14	=14	=14
2.r	4F#	4A	8d#]
.	.	.	8e
.	2r	2r	8f#
.	.	.	8a
.	.	.	8g#
.	.	.	8f#
=15	=15	=15	=15
2.r	4r	4r	2f#
.	4G#	4B	.
.	4G#	4B	4e
=16	=16	=16	=16
2.GG#	2.B	8r	8r
.	.	8e	8ee
.	.	8d#	8dd#
.	.	8e	8ee
.	.	8f#	8ff#
.	.	8e	8ee
=17	=17	=17	=17
2AA	2.E	8d#	8dd#
.	.	8c#	8cc#
.	.	4.c#	4.cc#
4GG#	.	.	.
.	.	8B	8b
=18	=18	=18	=18
4FF#	4D#	4B	4b
4DD#	4B	4f#	4a
4EE	4B	4e	4g#
=19	=19	=19	=19
4BB	4B	16d#	4f#
.	.	16B	.
.	.	16A#	.
.	.	16B	.
2r	2r	16c#	2r
.	.	16B	.
.	.	16A#	.
.	.	16B	.
.	.	16c#	.
.	.	16B	.
.	.	16A#	.
.	.	16B	.
=20	=20	=20	=20
2.r	4.d#	16c#	4.aa
.	.	16B	.
.	.	16A#	.
.	.	16B	.
.	.	16c#	.
.	.	16B	.
.	8d#	16A#	16ff#
.	.	16B	16aa
.	8e	16c#	8gg#
.	.	16B	.
.	16f#	16A#	16ff#
.	16g#	16B	16ee
=21	=21	=21	=21
4.A	8f#	16c#	8dd#
.	.	16B	.
.	4f#	16A#	4dd#
.	.	16B	.
.	.	16c#	.
.	.	16B	.
16G#	4f#	16A#	4dd#
16A	.	16B	.
8A	.	16c#	.
.	.	16B	.
16G#	8f#	16A#	8dd#
16F#	.	16B	.
=22	=22	=22	=22
4E	16g#	4B	16ee
.	16g#	.	16b
.	16a	.	16cc#
.	16f#	.	16dd#
4EE	16g#	2r	16ee
.	16d#	.	16ff#
.	16e	.	16gg#
.	16f#	.	16aa
4r	4g#	.	4bb
=23	=23	=23	=23
2.r	4.d#	16c#	4.aa
.	.	16B	.
.	.	16A#	.
.	.	16B	.
.	.	16c#	.
.	.	16B	.
.	8d#	16A#	16ff#
.	.	16B	16aa
.	8e	16c#	8gg#
.	.	16B	.
.	16f#	16A#	16ff#
.	16g#	16B	16ee
=24	=24	=24	=24
4.A	8f#	16c#	8dd#
.	.	16B	.
.	4f#	16A#	4dd#
.	.	16B	.
.	.	16c#	.
.	.	16B	.
16G#	4f#	16A#	4dd#
16A	.	16B	.
8A	.	16c#	.
.	.	16B	.
16G#	8f#	16A#	8dd#
16F#	.	16B	.
=25	=25	=25	=25
4E	16g#	4B	16ee
.	16g#	.	16b
.	16a	.	16cc#
.	16f#	.	16dd#
2r	16g#	2r	16ee
.	16d#	.	16ff#
.	16e	.	16gg#
.	16f#	.	16aa
.	4g#	.	4bb
=26	=26	=26	=26
4.e	4r	4ee 4b 4e	8r
.	.	.	16gg#
.	.	.	16ee
.	4g#	4.r	8ccc#
8e	.	.	8bb
8e	4f#	.	8aa#
8d#	.	16dd#	8bb
.	.	16b	.
=27	=27	=27	=27
4.c#	4r	8ee	8r
.	.	8e	16ee
.	.	.	16cc#
.	4e	4.r	8aa
8c#	.	.	8gg#
8c#	4d#	.	8ff##
8B	.	16b	8gg#
.	.	16g#	.
=28	=28	=28	=28
4.A	4r	8cc#	8r
.	.	8c#	16cc#
.	.	.	16a
.	4c#	4.r	8ff#
8A	.	.	8ee
8A	4B	.	8dd#
8G#	.	16g#	8ee
.	.	16e	.
=29	=29	=29	=29
4A	8r	8ee	8.cc#
.	8c#	16cc#	.
.	.	16a	16ff#
4B	4B	4g#	4ee
4BB	4A	4f#	4dd#
=30	=30	=30	=30
2.r	4r	4r	8.ee
.	.	.	16dd#
.	8e	8g#	8cc#
.	8r	8r	8r
.	8d#	8f#	8b
.	8r	8r	8r
=31	=31	=31	=31
2.r	4r	4r	8.cc#
.	.	.	16b
.	8c#	8e	8a
.	8r	8r	8r
.	8B	8d#	8g#
.	8r	8r	8r
=32	=32	=32	=32
2.r	4r	4r	8.a
.	.	.	16g#
.	8A	8c#	8f#
.	8r	8r	8r
.	8G#	8B	8e
.	8r	8r	8r
=33	=33	=33	=33
4AA	4A	4c#	8.c#
.	.	.	16f#
2BB	4G#	4B	4e
.	4F#	4A	4d#
=34	=34	=34	=34
4EE	4E	4G#	16e
.	.	.	16g#
.	.	.	16b
.	.	.	16ee
8E	4r	4r	16gg#
.	.	.	16ee
8G#	.	.	16bb
.	.	.	16gg#
8B	4f#	4a	16aa
.	.	.	16ff#
8BB	.	.	16ee
.	.	.	16dd#
=35	=35	=35	=35
4EE	4e	4g#	16ee
.	.	.	16b
.	.	.	16ee
.	.	.	16gg#
8E	4r	4r	16bb
.	.	.	16gg#
8G#	.	.	16bb
.	.	.	16gg#
8B	4f#	4a	16aa
.	.	.	16ff#
8BB	.	.	16ee
.	.	.	16dd#
=36	=36	=36	=36
4E	4e	4g#	4ee
4EE	4e	4ee 4b 4e	4gg# 4b 4e
4r	4r	4r	4r
=37	=37	=37	=37
2.r	2.r	2.r	8.e
.	.	.	16f#
.	.	.	4g#
.	.	.	4g#
=38	=38	=38	=38
2.r	2.r	2.r	8.f#
.	.	.	16g#
.	.	.	4a
.	.	.	4a
=39	=39	=39	=39
2.r	2.r	8.e	4g#
.	.	16f#	.
.	.	4g#	4b
.	.	4g#	[4ee
=40	=40	=40	=40
2.r	2.r	8.f#	4ee]
.	.	16g#	.
.	.	4a	4dd#
.	.	4a	4r
=41	=41	=41	=41
2.r	2.r	8.g#	4b
.	.	16a	.
.	.	4b	4ee
.	.	4b	[4gg#
=42	=42	=42	=42
2.r	2.r	8.a	4gg#]
.	.	16b	.
.	.	4cc#	4ff#
.	.	4cc#	4ee
=43	=43	=43	=43
2.r	2.r	4b	2dd#
.	.	4a	.
.	.	4g#	4ee
=44	=44	=44	=44
2.r	2.r	4f#	8.a
.	.	.	32b
.	.	.	32cc#
.	.	2d#	4b
.	.	.	4a
=45	=45	=45	=45
2.r	2.r	4e	8g#
.	.	.	4b
.	.	2e#	.
.	.	.	8dd
.	.	.	8cc#
.	.	.	8b
=46	=46	=46	=46
8.F#	2.r	4f#	4a
16G#	.	.	.
4A	.	2r	2r
4A	.	.	.
=47	=47	=47	=47
8.G#	2.r	2.r	2.r
16A	.	.	.
4B	.	.	.
4B	.	.	.
=48	=48	=48	=48
4A	8.f#	2.r	2.r
.	16g#	.	.
4c#	4a	.	.
[4F#	4a	.	.
=49	=49	=49	=49
4F#]	8.g#	2.r	2.r
.	16a	.	.
4E#	4b	.	.
4r	4b	.	.
=50	=50	=50	=50
2.F#	4a	2.r	8.aa
.	.	.	16gg
.	4dd	.	4ff#
.	[4d	.	4ff#
=51	=51	=51	=51
2.E	4d]	2.r	8.gg
.	.	.	16ff#
.	4c#	.	4ee
.	4r	.	4ee
=52	=52	=52	=52
2.D	4r	8.a	8.ff#
.	.	16g	16ee
.	8.a	4f#	4dd
.	16f#	.	.
.	4d	4f#	4dd
=53	=53	=53	=53
2.AA	4c#	8.g	8.ee
.	.	16f#	16dd
.	8.A	4e	4cc#
.	16e	.	.
.	4g	4e	4cc#
=54	=54	=54	=54
2.D	8.f#	4d	8.dd
.	16e	.	16ee
.	4d	2r	4ff#
.	4d	.	4ff#
=55	=55	=55	=55
2.C#	2.c#	8.a	8.ff#
.	.	16g#	16gg#
.	.	4f#	4aa
.	.	4f#	4aa
=56	=56	=56	=56
2.BB#	2.d#	8.f#	8.aa
.	.	16g#	16gg#
.	.	4a	4ff#
.	.	4f#	4a
=57	=57	=57	=57
4C#	4c#	8.f#	8.a
.	.	32e#	32g#
.	.	32f#	32a
4C#	4c#	4e#	4g#
4r	4r	4r	4r
=58	=58	=58	=58
8F#	8F#	2a	2cc#
8F#	8F#	.	.
8F#	8F#	.	.
8F#	8F#	.	.
8F#	8F#	4c#	4a
8F#	8F#	.	.
=59	=59	=59	=59
8F#	8F#	4A	4f#
8F#	8F#	.	.
8F#	8F#	4.dd	4.ff#
8F#	8F#	.	.
8F#	8F#	.	.
8F#	8F#	16cc#	16ee
.	.	16b	16dd
=60	=60	=60	=60
4F#	4F#	8a	8cc#
.	.	16g#	16b
.	.	16f#	16a
8r	8r	4f#	4a
8F#	8a	.	.
8C#	8f#	4r	4r
8AA	8c#	.	.
=61	=61	=61	=61
4FF#	4A	4c#	16f#
.	.	.	16g#
.	.	.	16a
.	.	.	16b
2r	2r	2r	16a
.	.	.	16b
.	.	.	16cc#
.	.	.	16dd
.	.	.	16cc#
.	.	.	16dd
.	.	.	16ee#
.	.	.	16ff#
=62	=62	=62	=62
8BB	8d	16G#	8ff#
.	.	16A	.
8BB	8d	16B	8g#
.	.	16A	.
8BB	8d	16B	[2g#
.	.	16c#	.
8BB	8f#	16d	.
.	.	16c#	.
8BB	8f#	16d	.
.	.	16e	.
8BB	8f#	16d	.
.	.	16c#	.
=63	=63	=63	=63
4C#	4e#	8B	8g#]
.	.	8e#	8g#
2r	2r	8f#	8a
.	.	8f#	8a
.	.	8g#	8b
.	.	8g#	8b
=64	=64	=64	=64
8r	8r	4g#	4b
8C#	8e#	.	.
8D	8f#	4f#	4a
8F#	8a	.	.
8D	8f#	4r	4r
8AA	8d	.	.
=65	=65	=65	=65
4FF#	4A	4a 4d	16dd
.	.	.	16ee
.	.	.	16ff#
.	.	.	16gg
2r	2r	2r	16ff#
.	.	.	16gg
.	.	.	16aa
.	.	.	16bb
.	.	.	16aa
.	.	.	16bb
.	.	.	16ccc#
.	.	.	16ddd
=66	=66	=66	=66
8GG	8d	16b	8ddd
.	.	16cc#	.
8GG	8d	16dd	8ee
.	.	16cc#	.
8GG	8d	16b	2ee
.	.	16a	.
8GG	8d	16g	.
.	.	16f#	.
8GG	8B	16g	.
.	.	16f#	.
8GG	8B	16e	.
.	.	16d	.
=67	=67	=67	=67
8AA	8A	8c#	8ee
8AA	8A	4ee	4ggg
8AA	8A	.	.
8AA	8A	8cc#	8eee
8AA	8A	8a	8ccc#
8AA	8cc#	8ee	8gg
=68	=68	=68	=68
8D	4dd	8dd	8ff#
8D	.	16cc#	16ee
.	.	16dd	16dd
8D	4d	8a 8f#	8dd
8D	.	16ff#	4ddd
.	.	16dd	.
8B	8r	16dd	.
.	.	16b	.
8B	8dd	16b	8ff#
.	.	16g#	.
=69	=69	=69	=69
8c#	4cc#	8g#	8ee
8c#	.	16f#	16dd
.	.	16e	16cc#
8c#	4c#	8e	8cc#
8c#	.	16ee	4ccc#
.	.	16cc#	.
8A	8r	16cc#	.
.	.	16a	.
8A	8cc#	16a	8ee
.	.	16f#	.
=70	=70	=70	=70
8B	4b	8f#	8dd
8B	.	16e	16cc#
.	.	16d	16b
8B	4B	8d	8b
8B	.	16dd	4bb
.	.	16b	.
8G#	8r	16b	.
.	.	16g#	.
8G#	8b	16g#	8dd
.	.	16e	.
=71	=71	=71	=71
8A	8a	8e	8cc#
8E	8e	8ee	8ee
8D	8d	8dd	8dd
8C#	8c#	8cc#	8cc#
8BB	8B	8b	8b
8AA	8A	8a	8a
=72	=72	=72	=72
8.GG#	8.G#	8.g#	8.g#
16FF#	16F#	16f#	16f#
8EE	8E	4e	4e
8d	8f#	.	.
8c#	8e	4r	4r
8B	8d	.	.
=73	=73	=73	=73
8A	8c#	2a	2ee
8A	8c#	.	.
8A	8c#	.	.
8A	8c#	.	.
8A	8A	4e	4cc#
8A	8A	.	.
=74	=74	=74	=74
8A	8A	4c#	4a
8A	8A	.	.
8A	8A	4.f#	4.aa
8A	8A	.	.
8A	8A	.	.
8A	8A	16e	16gg#
.	.	16d	16ff#
=75	=75	=75	=75
4AA	4A	8c#	8ee
.	.	16B	16dd
.	.	16A	16cc#
8r	8r	4A	4cc#
8A	8cc#	.	.
8E	8a	4r	4r
8C#	8e	.	.
=76	=76	=76	=76
4AA	4c#	4e	16a
.	.	.	16b
.	.	.	16cc#
.	.	.	16dd
2r	2r	2r	16cc#
.	.	.	16dd
.	.	.	16ee
.	.	.	16ff#
.	.	.	16ee
.	.	.	16ff#
.	.	.	16gg#
.	.	.	16aa
=77	=77	=77	=77
8D	8A	16f#	8aa
.	.	16g#	.
8D	8A	16a	8b
.	.	16g#	.
8D	8A	16f#	[2b
.	.	16e	.
8D	8A	16d	.
.	.	16c#	.
8D	8F#	16d	.
.	.	16c#	.
8D	8F#	16B	.
.	.	16A	.
=78	=78	=78	=78
4E	4E	8G#	8b]
.	.	8G#	8b
2r	2r	8A	8cc#
.	.	8A	8cc#
.	.	8B	8dd
.	.	8B	8dd
=79	=79	=79	=79
8r	8r	4G#	4b#
8FF#	8F#	.	.
8F#	8f#	4A	4cc#
8F#	8a	.	.
8E	8g#	4r	4r
8D	8f#	.	.
=80	=80	=80	=80
4C#	4e	2.r	16a
.	.	.	16b
.	.	.	16cc#
.	.	.	16dd
2r	2r	.	16cc#
.	.	.	16dd
.	.	.	16ee
.	.	.	16ff#
.	.	.	16ee
.	.	.	16ff#
.	.	.	16gg#
.	.	.	16aa
=81	=81	=81	=81
8D	8A	16a	8aa
.	.	16g#	.
8D	8A	16f#	8b
.	.	16e	.
8D	8A	16f#	[2b
.	.	16e	.
8D	8A	16d	.
.	.	16c#	.
8D	8F#	16d	.
.	.	16c#	.
8D	8F#	16B	.
.	.	16A	.
=82	=82	=82	=82
8E	8E	8G#	8b]
8E	8E	4b	4ddd
8E	8E	.	.
8E	8E	8g#	8bb
8E	8E	8e	8gg#
8E	8g#	8b	8dd
=83	=83	=83	=83
4A	4a	8a	8cc#
.	.	16g#	16b
.	.	16a	16a
4AA	4A	4e 4c#	4a
4r	4r	4r	4r
=84	=84	=84	=84
2.r	2.r	2.r	2A
.	.	.	4d
=85	=85	=85	=85
2.r	4r	4r	8d
.	.	.	8c#
.	4E	4G	[2c#
.	4E	4G	.
=86	=86	=86	=86
2.r	4E	4G	8c#]
.	.	.	8d
.	2r	2r	8e
.	.	.	8g
.	.	.	8f#
.	.	.	8e
=87	=87	=87	=87
2.r	4r	4r	2e
.	4F#	4A	.
.	4F#	4A	4d
=88	=88	=88	=88
2.r	2.r	2.r	2B
.	.	.	4e
=89	=89	=89	=89
2.r	4r	4r	8e
.	.	.	8d#
.	4F#	4A	[2d#
.	4F#	4A	.
=90	=90	=90	=90
2.r	4F#	4A	8d#]
.	.	.	8e
.	2r	2r	8f#
.	.	.	8a
.	.	.	8g#
.	.	.	8f#
=91	=91	=91	=91
2.r	4r	4r	2f#
.	4G#	4B	.
.	4G#	4B	4e
=92	=92	=92	=92
2.r	4A	4c#	2e
.	2r	2r	.
.	.	.	4a
=93	=93	=93	=93
2.r	4r	4r	8a
.	.	.	8g#
.	4B	4d	[2g#
.	4B	4d	.
=94	=94	=94	=94
2.r	4B	4d	8g#]
.	.	.	8a
.	2r	2r	8b
.	.	.	8dd
.	.	.	8cc#
.	.	.	8b
=95	=95	=95	=95
2.r	4r	4r	2b
.	4c#	4e	.
.	4c#	4e	4a
=96	=96	=96	=96
2.C#	2.e	8r	8r
.	.	8a	8aa
.	.	8g#	8gg#
.	.	8a	8aa
.	.	8b	8bb
.	.	8a	8aa
=97	=97	=97	=97
2D	2.A	8g#	8gg#
.	.	8f#	8ff#
.	.	4.f#	4.ff#
4C#	.	.	.
.	.	8e	8ee
=98	=98	=98	=98
4AA	4G#	4e	4ee
4GG#	4B	4d	4dd
4AA	4A	4c#	4cc#
=99	=99	=99	=99
4EE	4G#	8B	4b
.	.	8e	.
2r	2r	16f#	2r
.	.	16e	.
.	.	16d#	.
.	.	16e	.
.	.	16f#	.
.	.	16e	.
.	.	16d#	.
.	.	16e	.
=100	=100	=100	=100
2.r	4.g#	16f#	4.ddd
.	.	16e	.
.	.	16d#	.
.	.	16e	.
.	.	16f#	.
.	.	16e	.
.	8g#	16d#	16bb
.	.	16e	16ddd
.	8a	16f#	8ccc#
.	.	16e	.
.	16b	16d#	16bb
.	16cc#	16e	16aa
=101	=101	=101	=101
4.d	8b	16f#	8gg#
.	.	16e	.
.	4b	16d#	4gg#
.	.	16e	.
.	.	16f#	.
.	.	16e	.
16c#	4b	16d#	4gg#
16d	.	16e	.
8d	.	16f#	.
.	.	16e	.
16c#	8b	16d#	8gg#
16B	.	16e	.
=102	=102	=102	=102
4A	16cc#	4e	16aa
.	16cc#	.	16ee
.	16dd	.	16ff#
.	16b	.	16gg#
4AA	16cc#	2r	16aa
.	16g#	.	16bb
.	16a	.	16ccc#
.	16b	.	16ddd
4r	4cc#	.	4eee
=103	=103	=103	=103
2.r	4.G#	16f#	4.dd
.	.	16e	.
.	.	16d#	.
.	.	16e	.
.	.	16f#	.
.	.	16e	.
.	8G#	16d#	16b
.	.	16e	16dd
.	8A	16f#	8cc#
.	.	16e	.
.	16B	16d#	16b
.	16c#	16e	16a
=104	=104	=104	=104
4.D	8B	16f#	8g#
.	.	16e	.
.	4B	16d#	4g#
.	.	16e	.
.	.	16f#	.
.	.	16e	.
16C#	4B	16d#	4g#
16D	.	16e	.
8D	.	16f#	.
.	.	16e	.
16C#	8B	16d#	8g#
16BB	.	16e	.
=105	=105	=105	=105
4AA	16c#	4e	16a
.	16c#	.	16e
.	16d	.	16f#
.	16B	.	16g#
2r	16c#	2r	16a
.	16G#	.	16b
.	16A	.	16cc#
.	16B	.	16dd
.	4c#	.	4ee
=106	=106	=106	=106
4.A	4r	4a 4e 4A	8r
.	.	.	16cc#
.	.	.	16a
.	4cc#	4.r	8ff#
8A	.	.	8ee
8A	4b	.	8dd#
8G#	.	16g#	8ee
.	.	16e	.
=107	=107	=107	=107
4.F#	4r	8a	8r
.	.	8A	16a
.	.	.	16f#
.	4a	4.r	8dd
8F#	.	.	8cc#
8F#	4g#	.	8b#
8E	.	16e	8cc#
.	.	16c#	.
=108	=108	=108	=108
4.D	4r	8f#	8r
.	.	8B	16ff#
.	.	.	16dd
.	4f#	4.r	8bb
8D	.	.	8aa
8D	8B	.	8gg#
8C#	8c#	16ee	8aa
.	.	16cc#	.
=109	=109	=109	=109
4D	8.d	8.a	8.ff#
.	16f#	16b	16dd
4E	2e	4a	4cc#
4EE	.	4g#	4b
=110	=110	=110	=110
4r	4r	2.r	8.a
.	.	.	16g#
8A	8c#	.	8f#
8r	8r	.	8r
8G#	8B	.	8e
8r	8r	.	8r
=111	=111	=111	=111
4r	4r	2.r	8.f#
.	.	.	16e
8F#	8A	.	8d
8r	8r	.	8r
8E	8G#	.	8c#
8r	8r	.	8r
=112	=112	=112	=112
4r	4r	4r	8.d
.	.	.	16c#
8D	8E	8G#	8B
8r	8r	8r	8r
8C#	8E	8A	8A
8r	8r	8r	8r
=113	=113	=113	=113
4BB	4F#	4B	4d
2E	2E	4A	4c#
.	.	4G#	4B
=114	=114	=114	=114
4AA	4E	4A	16A
.	.	.	16c#
.	.	.	16e
.	.	.	16a
8AA	4r	4r	16cc#
.	.	.	16a
8C#	.	.	16ee
.	.	.	16cc#
8E	4B	4d	16dd
.	.	.	16b
8EE	.	.	16a
.	.	.	16g#
=115	=115	=115	=115
4AA	4A	4c#	16a
.	.	.	16cc#
.	.	.	16ee
.	.	.	16aa
8A	4r	4r	16ccc#
.	.	.	16aa
8c#	.	.	16eee
.	.	.	16ccc#
8e	4b	4dd	16ddd
.	.	.	16bb
8E	.	.	16aa
.	.	.	16gg#
=116	=116	=116	=116
8A	8a	8cc#	8aa
16c#	16cc#	16cc#	16cc#
32B	32b	32b	32b
32c#	32cc#	32cc#	32cc#
8d	8dd	8dd	8dd
8B	8b	8b	8b
8e	8ee	8ee	8ee
8E	8e	8e	8e
=117	=117	=117	=117
4A	4a	4a	4a
4AA	4A	4A	4A
4r	4r	4r	4r
==	==	==	==
*-	*-	*-	*-
!!!RWG1: This file contains only pitch and duration data.
!!!RWG2: Transposing instruments are not transposed.
!!!RWG3: Spines may have incompatible meters.
!!!RWG4: Durations of rests and tied notes may be interpreted.
!!!RWG: Key is interpreted using the Humdrum key tool.
!!!AFT: stage1
!!!END: 1997/04/15
!!!KEY: 2449913820
!!!EMD: Converted from MuseData to Humdrum Dec 16, 2000, by Andreas Kornstaedt using muse2kern.
!!!EMD: Manual editing by Craig Sapp, Nov 2001
